X: 1
T: The Ballydesmond
R: polka
M: 2/4
L: 1/8
K: Ador
|:E>A AB|cd e2|G>F GA|GF ED|
|E>A AB|cd ef|ge dB|A2 A2:|
|:a2 ab|ag ef|g2 ga|ge de|
|e<a ab|ag ef|ge dB|A2 A2:|


Tune 238	Setting 12940

